X:1
T: Bully for you
C:
R:Jig
Q:180
K:D
M:6/8
L:1/16
|:ag|f4d2 e4d2|f4d2 e4d2|B2e2e2 e4d2|B2e2e2 e2a2g2|
f4d2 e4d2|f4d2 e4d2|A2d2d2 d2e2f2|A2d2d2 d4:|
|:ag|f2g2a2 e2f2g2|f2g2a2 e4d2|B2e2e2 e4d2|B2e2e2 e2a2g2|
f2g2a2 e2f2g2|f2g2a2 e4d2|B2d2d2 d2e2f2|A2d2d2 d4:|
